images/logo.svg

<svg width="91" height="34" viewBox="0 0 91 34" fill="none" xmlns="http://www.w3.org/2000/svg">
<path d="M4 33.056C3.04 33.056 2.32 32.888 1.84 32.552C1.336 32.216 1.012 31.772 0.868 31.22C1.564 31.076 2.152 30.86 2.632 30.572C3.112 30.284 3.532 29.852 3.892 29.276C4.252 28.7 4.576 27.944 4.864 27.008C5.152 26.072 5.44 24.884 5.728 23.444L8.464 9.26H5.944L6.268 7.64H8.788L9.256 5.84C9.664 4.28 10.288 3.092 11.128 2.276C11.992 1.436 13.036 0.86 14.26 0.547999C15.484 0.235999 16.852 0.079999 18.364 0.079999C19.252 0.079999 20.044 0.127999 20.74 0.223999C21.46 0.319999 22.144 0.476 22.792 0.692L26.104 0.295998L21.82 21.86C21.796 22.052 21.76 22.304 21.712 22.616C21.664 22.904 21.64 23.156 21.64 23.372C21.64 23.756 21.736 24.08 21.928 24.344C22.144 24.584 22.456 24.728 22.864 24.776C22.696 25.448 22.3 25.94 21.676 26.252C21.052 26.564 20.392 26.72 19.696 26.72C18.832 26.72 18.136 26.48 17.608 26C17.08 25.52 16.816 24.836 16.816 23.948C16.816 23.636 16.852 23.24 16.924 22.76C16.996 22.256 17.08 21.74 17.176 21.212C17.272 20.66 17.368 20.144 17.464 19.664C17.56 19.16 17.632 18.752 17.68 18.44L20.452 4.364C20.524 4.076 20.584 3.824 20.632 3.608C20.68 3.368 20.704 3.188 20.704 3.068C20.704 2.66 20.44 2.336 19.912 2.096C19.408 1.832 18.772 1.7 18.004 1.7C16.876 1.7 15.988 1.988 15.34 2.564C14.716 3.14 14.284 4.004 14.044 5.156L13.576 7.64H16.636L16.384 9.26H13.252L10.336 24.272C9.976 26.192 9.52 27.8 8.968 29.096C8.44 30.416 7.768 31.4 6.952 32.048C6.16 32.72 5.176 33.056 4 33.056ZM31.4916 26.72C30.2676 26.72 29.2356 26.528 28.3956 26.144C27.5556 25.784 26.8716 25.292 26.3436 24.668C25.8396 24.044 25.4676 23.336 25.2276 22.544C25.0116 21.728 24.9036 20.9 24.9036 20.06C24.9036 18.38 25.1196 16.76 25.5516 15.2C25.9836 13.64 26.6316 12.236 27.4956 10.988C28.3596 9.74 29.4516 8.756 30.7716 8.036C32.0916 7.292 33.6516 6.92 35.4516 6.92C36.6996 6.92 37.7316 7.112 38.5476 7.496C39.3876 7.856 40.0596 8.348 40.5636 8.972C41.0916 9.596 41.4636 10.304 41.6796 11.096C41.9196 11.888 42.0396 12.704 42.0396 13.544C42.0396 15.224 41.8236 16.856 41.3916 18.44C40.9596 20 40.3116 21.404 39.4476 22.652C38.5836 23.9 37.4916 24.896 36.1716 25.64C34.8516 26.36 33.2916 26.72 31.4916 26.72ZM32.1396 24.56C32.8356 24.56 33.4596 24.308 34.0116 23.804C34.5636 23.276 35.0316 22.592 35.4156 21.752C35.8236 20.888 36.1596 19.928 36.4236 18.872C36.6876 17.816 36.8796 16.736 36.9996 15.632C37.1436 14.528 37.2156 13.472 37.2156 12.464C37.2156 11.48 37.0356 10.676 36.6756 10.052C36.3396 9.404 35.7156 9.08 34.8036 9.08C34.1076 9.08 33.4836 9.332 32.9316 9.836C32.3796 10.34 31.8996 11.024 31.4916 11.888C31.0836 12.728 30.7476 13.676 30.4836 14.732C30.2196 15.788 30.0276 16.88 29.9076 18.008C29.7876 19.112 29.7276 20.168 29.7276 21.176C29.7276 22.16 29.8956 22.976 30.2316 23.624C30.5916 24.248 31.2276 24.56 32.1396 24.56ZM48.7756 26.72C46.6396 26.72 45.0076 26.132 43.8796 24.956C42.7756 23.756 42.2236 21.932 42.2236 19.484C42.2236 17.876 42.4516 16.328 42.9076 14.84C43.3636 13.352 44.0356 12.008 44.9236 10.808C45.8356 9.608 46.9516 8.66 48.2716 7.964C49.5916 7.268 51.1036 6.92 52.8076 6.92C53.8396 6.92 54.7516 7.064 55.5436 7.352C56.3356 7.616 56.9476 8.024 57.3796 8.576C57.8356 9.128 58.0636 9.848 58.0636 10.736C58.0636 11.864 57.7276 12.692 57.0556 13.22C56.3836 13.724 55.6156 13.976 54.7516 13.976C54.5116 13.976 54.2356 13.952 53.9236 13.904C53.6356 13.832 53.3956 13.712 53.2036 13.544C53.3476 13.136 53.4676 12.68 53.5636 12.176C53.6836 11.648 53.7436 11.18 53.7436 10.772C53.7436 10.244 53.6236 9.824 53.3836 9.512C53.1436 9.2 52.7596 9.044 52.2316 9.044C51.5596 9.044 50.9476 9.284 50.3956 9.764C49.8436 10.244 49.3516 10.88 48.9196 11.672C48.5116 12.44 48.1636 13.292 47.8756 14.228C47.6116 15.14 47.4076 16.052 47.2636 16.964C47.1196 17.852 47.0476 18.632 47.0476 19.304C47.0476 20.456 47.2756 21.416 47.7316 22.184C48.1876 22.952 49.0156 23.336 50.2156 23.336C51.2716 23.336 52.1836 23.036 52.9516 22.436C53.7436 21.812 54.3076 21.008 54.6436 20.024C55.0996 20.168 55.4236 20.408 55.6156 20.744C55.8076 21.08 55.9036 21.488 55.9036 21.968C55.9036 22.856 55.5796 23.66 54.9316 24.38C54.3076 25.1 53.4556 25.664 52.3756 26.072C51.3196 26.504 50.1196 26.72 48.7756 26.72ZM62.1704 26.72C61.0424 26.72 60.1064 26.504 59.3624 26.072C58.6184 25.664 58.0664 25.076 57.7064 24.308C57.3704 23.54 57.2024 22.64 57.2024 21.608C57.2024 20.936 57.2864 20.048 57.4544 18.944C57.6224 17.816 57.8864 16.34 58.2464 14.516C58.6304 12.692 59.0984 10.4 59.6504 7.64L64.4384 7.136C63.9104 9.608 63.4784 11.672 63.1424 13.328C62.8304 14.96 62.5664 16.304 62.3504 17.36C62.1584 18.416 62.0264 19.268 61.9544 19.916C61.8824 20.564 61.8464 21.14 61.8464 21.644C61.8464 22.124 61.9064 22.592 62.0264 23.048C62.1464 23.48 62.3504 23.84 62.6384 24.128C62.9504 24.392 63.3824 24.524 63.9344 24.524C64.7504 24.524 65.4224 24.248 65.9504 23.696C66.5024 23.12 66.9344 22.412 67.2464 21.572C67.5584 20.732 67.7864 19.904 67.9304 19.088L70.0904 7.64L74.9504 7.136L72.1064 21.86C72.0824 22.052 72.0464 22.292 71.9984 22.58C71.9504 22.868 71.9264 23.132 71.9264 23.372C71.9264 23.756 72.0224 24.08 72.2144 24.344C72.4304 24.584 72.7544 24.728 73.1864 24.776C73.0664 25.208 72.8384 25.568 72.5024 25.856C72.1664 26.144 71.7824 26.36 71.3504 26.504C70.9424 26.648 70.5104 26.72 70.0544 26.72C69.3584 26.72 68.7584 26.54 68.2544 26.18C67.7504 25.844 67.4264 25.34 67.2824 24.668C66.7544 25.388 66.0104 25.904 65.0504 26.216C64.1144 26.552 63.1544 26.72 62.1704 26.72ZM80.4831 26.792C79.6911 26.792 78.8991 26.72 78.1071 26.576C77.3151 26.432 76.5951 26.204 75.9471 25.892C75.2991 25.58 74.7831 25.184 74.3991 24.704C74.0391 24.2 73.8591 23.612 73.8591 22.94C73.8591 22.244 74.0271 21.692 74.3631 21.284C74.7231 20.876 75.1671 20.576 75.6951 20.384C76.2231 20.192 76.7511 20.096 77.2791 20.096C77.5911 20.096 77.9151 20.132 78.2511 20.204C78.5871 20.276 78.8511 20.408 79.0431 20.6C78.9231 20.984 78.8271 21.332 78.7551 21.644C78.6831 21.956 78.6471 22.316 78.6471 22.724C78.6471 23.324 78.8631 23.816 79.2951 24.2C79.7511 24.584 80.3631 24.776 81.1311 24.776C81.9711 24.776 82.6551 24.56 83.1831 24.128C83.7351 23.672 84.0111 23.096 84.0111 22.4C84.0351 21.776 83.8431 21.224 83.4351 20.744C83.0511 20.24 82.5591 19.772 81.9591 19.34C81.3591 18.884 80.7351 18.428 80.0871 17.972C79.4151 17.516 78.7791 17.036 78.1791 16.532C77.5791 16.004 77.0871 15.416 76.7031 14.768C76.3191 14.096 76.1271 13.316 76.1271 12.428C76.1271 11.516 76.3671 10.712 76.8471 10.016C77.3271 9.32 77.9631 8.744 78.7551 8.288C79.5471 7.832 80.4231 7.496 81.3831 7.28C82.3431 7.04 83.3151 6.92 84.2991 6.92C85.2111 6.92 86.1111 7.04 86.9991 7.28C87.8871 7.496 88.6191 7.868 89.1951 8.396C89.7951 8.924 90.0951 9.656 90.0951 10.592C90.0711 11.552 89.7591 12.284 89.1591 12.788C88.5591 13.292 87.8631 13.544 87.0711 13.544C86.7591 13.544 86.4111 13.508 86.0271 13.436C85.6671 13.34 85.3551 13.196 85.0911 13.004C85.2351 12.692 85.3431 12.38 85.4151 12.068C85.5111 11.732 85.5591 11.384 85.5591 11.024C85.5831 10.376 85.3911 9.86 84.9831 9.476C84.5751 9.092 83.9991 8.9 83.2551 8.9C82.5351 8.9 81.9231 9.092 81.4191 9.476C80.9151 9.86 80.6511 10.412 80.6271 11.132C80.6271 11.66 80.7711 12.152 81.0591 12.608C81.3711 13.064 81.7791 13.496 82.2831 13.904C82.7871 14.312 83.3271 14.708 83.9031 15.092C84.6711 15.596 85.4031 16.124 86.0991 16.676C86.8191 17.204 87.4071 17.816 87.8631 18.512C88.3431 19.184 88.5831 20.012 88.5831 20.996C88.5591 22.148 88.1871 23.168 87.4671 24.056C86.7471 24.92 85.7751 25.592 84.5511 26.072C83.3271 26.552 81.9711 26.792 80.4831 26.792Z" fill="#1B1517"/>
</svg>

<svg width="91" height="34" fill="none" xmlns="http://www.w3.org/2000/svg"><path d="M4 33.056c-.96 0-1.68-.168-2.16-.504-.504-.336-.828-.78-.972-1.332.696-.144 1.284-.36 1.764-.648.48-.288.9-.72 1.26-1.296.36-.576.684-1.332.972-2.268.288-.936.576-2.124.864-3.564L8.464 9.26h-2.52l.324-1.62h2.52l.468-1.8c.408-1.56 1.032-2.748 1.872-3.564.864-.84 1.908-1.416 3.132-1.728C15.484.236 16.852.08 18.364.08c.888 0 1.68.048 2.376.144.72.096 1.404.252 2.052.468l3.312-.396L21.82 21.86c-.024.192-.06.444-.108.756-.048.288-.072.54-.072.756 0 .384.096.708.288.972.216.24.528.384.936.432a2.169 2.169 0 0 1-1.188 1.476 4.37 4.37 0 0 1-1.98.468c-.864 0-1.56-.24-2.088-.72s-.792-1.164-.792-2.052c0-.312.036-.708.108-1.188.072-.504.156-1.02.252-1.548.096-.552.192-1.068.288-1.548.096-.504.168-.912.216-1.224l2.772-14.076c.072-.288.132-.54.18-.756.048-.24.072-.42.072-.54 0-.408-.264-.732-.792-.972-.504-.264-1.14-.396-1.908-.396-1.128 0-2.016.288-2.664.864-.624.576-1.056 1.44-1.296 2.592l-.468 2.484h3.06l-.252 1.62h-3.132l-2.916 15.012c-.36 1.92-.816 3.528-1.368 4.824-.528 1.32-1.2 2.304-2.016 2.952-.792.672-1.776 1.008-2.952 1.008Zm27.492-6.336c-1.224 0-2.256-.192-3.096-.576-.84-.36-1.524-.852-2.052-1.476a6.212 6.212 0 0 1-1.116-2.124 9.667 9.667 0 0 1-.324-2.484c0-1.68.216-3.3.648-4.86.432-1.56 1.08-2.964 1.944-4.212a9.424 9.424 0 0 1 3.276-2.952c1.32-.744 2.88-1.116 4.68-1.116 1.248 0 2.28.192 3.096.576.84.36 1.512.852 2.016 1.476.528.624.9 1.332 1.116 2.124.24.792.36 1.608.36 2.448 0 1.68-.216 3.312-.648 4.896-.432 1.56-1.08 2.964-1.944 4.212a9.77 9.77 0 0 1-3.276 2.988c-1.32.72-2.88 1.08-4.68 1.08Zm.648-2.16c.696 0 1.32-.252 1.872-.756.552-.528 1.02-1.212 1.404-2.052a15.59 15.59 0 0 0 1.008-2.88c.264-1.056.456-2.136.576-3.24.144-1.104.216-2.16.216-3.168 0-.984-.18-1.788-.54-2.412-.336-.648-.96-.972-1.872-.972-.696 0-1.32.252-1.872.756s-1.032 1.188-1.44 2.052c-.408.84-.744 1.788-1.008 2.844a23.929 23.929 0 0 0-.576 3.276c-.12 1.104-.18 2.16-.18 3.168 0 .984.168 1.8.504 2.448.36.624.996.936 1.908.936Zm16.636 2.16c-2.136 0-3.768-.588-4.896-1.764-1.104-1.2-1.656-3.024-1.656-5.472 0-1.608.228-3.156.684-4.644a13.243 13.243 0 0 1 2.016-4.032 10.044 10.044 0 0 1 3.348-2.844c1.32-.696 2.832-1.044 4.536-1.044 1.032 0 1.944.144 2.736.432.792.264 1.404.672 1.836 1.224.456.552.684 1.272.684 2.16 0 1.128-.336 1.956-1.008 2.484a3.739 3.739 0 0 1-2.304.756 5.52 5.52 0 0 1-.828-.072 1.699 1.699 0 0 1-.72-.36 9.41 9.41 0 0 0 .36-1.368c.12-.528.18-.996.18-1.404 0-.528-.12-.948-.36-1.26-.24-.312-.624-.468-1.152-.468-.672 0-1.284.24-1.836.72s-1.044 1.116-1.476 1.908c-.408.768-.756 1.62-1.044 2.556a22.394 22.394 0 0 0-.612 2.736c-.144.888-.216 1.668-.216 2.34 0 1.152.228 2.112.684 2.88.456.768 1.284 1.152 2.484 1.152 1.056 0 1.968-.3 2.736-.9a5.097 5.097 0 0 0 1.692-2.412c.456.144.78.384.972.72.192.336.288.744.288 1.224 0 .888-.324 1.692-.972 2.412-.624.72-1.476 1.284-2.556 1.692-1.056.432-2.256.648-3.6.648Zm13.394 0c-1.128 0-2.064-.216-2.808-.648a3.806 3.806 0 0 1-1.656-1.764c-.336-.768-.504-1.668-.504-2.7 0-.672.084-1.56.252-2.664.168-1.128.432-2.604.792-4.428.384-1.824.852-4.116 1.404-6.876l4.788-.504c-.528 2.472-.96 4.536-1.296 6.192a330.785 330.785 0 0 1-.792 4.032 39.154 39.154 0 0 0-.396 2.556 15.838 15.838 0 0 0-.108 1.728c0 .48.06.948.18 1.404.12.432.324.792.612 1.08.312.264.744.396 1.296.396.816 0 1.488-.276 2.016-.828.552-.576.984-1.284 1.296-2.124.312-.84.54-1.668.684-2.484L70.09 7.64l4.86-.504-2.844 14.724c-.024.192-.06.432-.108.72a4.848 4.848 0 0 0-.072.792c0 .384.096.708.288.972.216.24.54.384.972.432-.12.432-.348.792-.684 1.08-.336.288-.72.504-1.152.648-.408.144-.84.216-1.296.216-.696 0-1.296-.18-1.8-.54-.504-.336-.828-.84-.972-1.512-.528.72-1.272 1.236-2.232 1.548a8.463 8.463 0 0 1-2.88.504Zm18.313.072c-.792 0-1.584-.072-2.376-.216a8.434 8.434 0 0 1-2.16-.684c-.648-.312-1.164-.708-1.548-1.188-.36-.504-.54-1.092-.54-1.764 0-.696.168-1.248.504-1.656.36-.408.804-.708 1.332-.9a4.608 4.608 0 0 1 1.584-.288c.312 0 .636.036.972.108.336.072.6.204.792.396-.12.384-.216.732-.288 1.044a4.834 4.834 0 0 0-.108 1.08c0 .6.216 1.092.648 1.476.456.384 1.068.576 1.836.576.84 0 1.524-.216 2.052-.648.552-.456.828-1.032.828-1.728a2.336 2.336 0 0 0-.576-1.656 6.908 6.908 0 0 0-1.476-1.404c-.6-.456-1.224-.912-1.872-1.368a23.33 23.33 0 0 1-1.908-1.44 7.31 7.31 0 0 1-1.476-1.764c-.384-.672-.576-1.452-.576-2.34 0-.912.24-1.716.72-2.412s1.116-1.272 1.908-1.728a9.34 9.34 0 0 1 2.628-1.008c.96-.24 1.932-.36 2.916-.36.912 0 1.812.12 2.7.36.888.216 1.62.588 2.196 1.116.6.528.9 1.26.9 2.196-.024.96-.336 1.692-.936 2.196a3.15 3.15 0 0 1-2.088.756c-.312 0-.66-.036-1.044-.108a2.801 2.801 0 0 1-.936-.432c.144-.312.252-.624.324-.936.096-.336.144-.684.144-1.044.024-.648-.168-1.164-.576-1.548-.408-.384-.984-.576-1.728-.576-.72 0-1.332.192-1.836.576-.504.384-.768.936-.792 1.656 0 .528.144 1.02.432 1.476.312.456.72.888 1.224 1.296.504.408 1.044.804 1.62 1.188.768.504 1.5 1.032 2.196 1.584a7.1 7.1 0 0 1 1.764 1.836c.48.672.72 1.5.72 2.484a4.89 4.89 0 0 1-1.116 3.06c-.72.864-1.692 1.536-2.916 2.016s-2.58.72-4.068.72Z" fill="#1B1517"/></svg>
